X:170
T: I'se the b'y
M:6/8
R:jig
L:1/8
Z:added by Alf warnock alf0@rogers.com - http://members.rogers.com/alf0
K:D
|:"D"F2F F2F|"A7"E2C A,3| "D"F2F F2F|"G"G3 "A7"A3|"D"F2F F2F|"A7"E2C A,3| A,2C E2C|"D"D3 D3:|
